X: 3310
T: Bell's Favourite
R: jig
M: 6/8
K: Dmajor
M:12/8
|:AG|F2 F GFG BAF A2 d|cde ABc dcB ABG|
F^EF GFG BAF A2 d|cde ABc d3- d:|
|:fg|a2 a fdf gfg e2 d|cde ABc dcB Ae/f/g|
a^ga fd/e/f gfg e2 d|cc/d/e ABc d3- d:|

